X:1
T:Are You Witnessing for Him?
T:James Henry Fillmore
T:Are You Witnessing for Him?
T:Public Domain
T:Public Domain
T:Public Domain
T:Public Domain
C:James Henry Fillmore
Z:Public Domain
%%score ( 1 2 ) ( 3 4 )
L:1/8
M:4/4
K:D
V:1 treble 
V:2 treble 
V:3 bass 
V:4 bass 
V:1
 D>[DE] | [DF]>[DF] [DF]>[DF] [DF]>[DF] [DF]>[EG] | [FA]>[FA] [FA]>[FA] [FA]2 [DF]>[FA] | %3
w: 1.~Tell me,|ther, worn and wea- ry, Toil- ing o’er|life’s path- way dim, Are you shed-|
w: 2.~Are you|ing by the way- side For the faint-|ing ones who fall? Do you take|
w: 3.~Have you|a con- se- cra- tion Of your time|and earth- ly store? Have you placed|
 [Fd]>[Fd] [Ac]>[GB] [FA]>[EG] [DF]>[DG] | [DA]>[DA] [EG]>[DF] [CE]2 D>[CE] | %5
w: ding light for Je- sus, Are you wit-|ness- ing for Him? Are you seek-|
w: them to the Sav- ior, Who has prom-|ised rest for all? Do you love|
w: them on the al- tar? Then the Mas-|ter asks no more. Thus, O Christ-|
 [DF]>[DF] [DF]>[DF] [DF]>[DF] [DF]>[EG] | [FA]>[FA] [FA]>[FA] [FA]2 [DF]>[FA] | %7
w: for the sin- ners, Those whom Je- sus|died to win? Are you point- ing|
w: tell of Je- sus More than all the|world be- side? Does it bring a|
w: may we jour- ney, Show- ing forth the|Sav- ior’s praise, With our lamps all|
 [Fd]>[Fd] [Ac]>[GB] [FA]>[EG] [DF]>[EG] | [DF]>[CE] D>[A,C] [A,D]2 ||"^Refrain" [DF]>[FA] | %10
w: to the fount- ain That can wash a-|way their sin? Tell me,|ther, worn|
w: heav’n- ly bless- ing With God’s peo- ple|to a- bide? * *||
w: bright and burn- ing, That the world may|catch their rays. * *||
 (F>F F>F) (F>F) [GB]>[FA] | (F>F F>F) (D>D) [DF]>[FA] | (F>F) (G>G) [FA]2 (D>D) | %13
w: and * * * wea- * ry, Toil-|life’s * * * path- * way dim;|shed- * ding * light for *|
w: |||
w: |||
 (C>C C>C C2) [DF]>[FA] | (F>F F>F) (F>F) [GB]>[FA] | (F>F F>F) (D>D) D>[DE] | %16
w: you * * * * wit- ness-|for * * * Him? * * *||
w: |||
w: |||
 (D>D) (E>E) [DF]2 (C>C) | (D>A, B,>B, A,2) |] %18
w: ||
w: ||
w: ||
V:2
 D3/2 x/ | x8 | x8 | x8 | x6 D3/2 x/ | x8 | x8 | x8 | x2 D3/2 x5/2 || x2 | d4 A3 x | A4 F2 x2 | %12
w: bro-||||ing||||bro-||ing o’er|Are you|
w: watch-||||to||||||||
w: made||||ian,||||||||
 d2 B2 x/ F2 x3/2 | E6 x2 | d4 A2 x2 | A4 F2 D3/2 x/ | F2 G2 x/ E2 x3/2 | D4 x2 |] %18
w: Je- sus? Are|ing|||||
w: ||||||
w: ||||||
V:3
 [D,F,]>[D,G,] | [D,A,]>[D,A,] [D,A,]>[D,A,] [D,A,]>[D,A,] [D,A,]>[D,A,] | %2
w: ~ ~|~ ~ ~ ~ ~ ~ ~ ~|
 [D,D]>[D,D] [D,D]>[D,D] [D,D]2 [D,A,]>[D,A,] | %3
w: ~ ~ ~ ~ ~ ~ ~|
 [D,A,]>[D,A,] [D,B,]>[D,C] [D,D]>[D,A,] [D,A,]>[E,A,] | %4
w: ~ ~ ~ ~ ~ ~ ~ ~|
 [F,A,]>[F,A,] [G,B,]>[^G,B,] (A,=G,) [F,A,]>[E,A,] | %5
w: ~ ~ ~ ~ ~ * ~ ~|
 [D,A,]>[D,A,] [D,A,]>[D,A,] [D,A,]>[D,A,] [D,A,]>[D,A,] | %6
w: ~ ~ ~ ~ ~ ~ ~ ~|
 [D,D]>[D,D] [D,D]>[D,D] [D,D]2 [D,A,]>[D,A,] | %7
w: ~ ~ ~ ~ ~ ~ ~|
 [D,A,]>[D,A,] [D,B,]>[D,C] [D,D]>[D,A,] [D,A,]>[A,,B,] | %8
w: ~ ~ ~ ~ ~ ~ ~ ~|
 [A,,A,]>[A,,G,] [A,,F,]>[A,,E,] [D,F,]2 || [D,A,]>[D,A,] | %10
w: ~ ~ ~ ~ Tell|me, bro-|
 [D,A,]>[D,A,] [D,A,]>[D,A,] [D,D]>[D,D] [D,D]>[D,D] | %11
w: ther, worn and wea- ry, Tell me, bro-|
 [D,D]>[D,D] [D,D]>[D,D] [D,A,]>[D,A,] [D,A,]>[D,A,] | %12
w: ther, worn and wea- ry, Toil- ing o’er|
 [D,A,]>[D,A,] [D,D]>[D,D] [D,D]2 [D,A,]>[D,A,] | %13
w: life’s path- way dim, Toil- ing o’er|
 [A,,A,]>[A,,A,] [A,,A,]>[A,,A,] [A,,A,]2 [D,A,]>[D,A,] | %14
w: life’s path- way dim; Are you shed-|
 [D,A,]>[D,A,] [D,A,]>[D,A,] [D,D]>[D,D] [D,D]>[D,D] | %15
w: ding light for Je- sus? Are you shed-|
 [D,D]>[D,D] [D,D]>[D,D] [D,A,]>[D,A,] [D,F,]>[D,G,] | %16
w: ding light for Je- sus? Are you wit-|
 [D,A,]>[D,A,] [G,B,]>[G,B,] A,2 [A,,G,]>[A,,G,] | [D,F,]>[D,F,] [D,G,]>[D,G,] [D,F,]2 |] %18
w: ness- ing for Him? Are you wit-|ing for Him? * *|
V:4
 x2 | x8 | x8 | x8 | x4 A,2 x2 | x8 | x8 | x8 | x6 || x2 | x8 | x8 | x8 | x8 | x8 | x8 | %16
w: ||||~||||||||||||
 x4 A,2 x2 | x6 |] %18
w: ness-||

